korla/apps/scalable/wingpanel.svg

<!DOCTYPE svg  PUBLIC '-//W3C//DTD SVG 1.1//EN'  'http://www.w3.org/Graphics/SVG/1.1/DTD/svg11.dtd'>
<svg style="clip-rule:evenodd;fill-rule:evenodd" version="1.1" viewBox="0 0 48 48" xmlns="http://www.w3.org/2000/svg">
 <rect x="1" y="6.645" width="46" height="34.71" style="fill:url(#_Linear1)"/>
 <g transform="translate(-.520482 -1.99998)">
  <path d="m24 15.178c-5.977 0-10.822 4.845-10.822 10.822s4.845 10.822 10.822 10.822 10.822-4.845 10.822-10.822-4.845-10.822-10.822-10.822zm0 0.902c4.544 0 8.375 3.055 9.549 7.223-1.011 2.087-2.451 3.966-4.204 5.485-0.843 0.729-1.762 1.379-2.778 1.837s-2.133 0.718-3.246 0.654c-0.835-0.048-1.661-0.281-2.393-0.686 1.94-1.051 3.69-2.453 5.123-4.131 0.94-1.101 1.763-2.353 2.079-3.766 0.159-0.707 0.186-1.447 0.038-2.156-0.148-0.708-0.476-1.384-0.972-1.911-0.485-0.516-1.121-0.881-1.803-1.069s-1.407-0.203-2.103-0.076c-1.392 0.255-2.635 1.064-3.631 2.068-1.757 1.77-2.843 4.268-2.644 6.753 0.1 1.243 0.516 2.465 1.23 3.487 0.159 0.228 0.335 0.446 0.522 0.652-1.04 0.364-2.116 0.623-3.208 0.769-0.938-1.515-1.479-3.301-1.479-5.213 0-5.479 4.441-9.92 9.92-9.92zm0.063 2.004c0.697 1e-3 1.4 0.212 1.956 0.632 0.501 0.379 0.873 0.918 1.083 1.51 0.211 0.592 0.265 1.235 0.193 1.859-0.144 1.248-0.773 2.393-1.534 3.393-1.347 1.771-3.138 3.188-5.129 4.18-0.204 0.102-0.411 0.198-0.619 0.291-0.434-0.379-0.805-0.829-1.088-1.33-0.592-1.048-0.787-2.292-0.672-3.489 0.115-1.198 0.526-2.352 1.078-3.421 0.64-1.239 1.512-2.413 2.733-3.086 0.611-0.337 1.302-0.54 1.999-0.539zm9.768 6.588c0.058 0.434 0.089 0.878 0.089 1.328 0 5.479-4.441 9.92-9.92 9.92-3.077 0-5.827-1.4-7.646-3.599 1.123-0.255 2.22-0.622 3.273-1.088 0.461 0.351 0.969 0.638 1.51 0.845 1.556 0.597 3.324 0.511 4.899-0.035 1.575-0.545 2.972-1.524 4.19-2.662 1.451-1.356 2.674-2.955 3.605-4.709z" style="fill-rule:nonzero;fill:white;stroke-width:.36px;stroke:white"/>
 </g>
 <defs>
  <linearGradient id="_Linear1" x2="1" gradientTransform="matrix(.384131 -42.435 42.435 .384131 25.0455 42.3761)" gradientUnits="userSpaceOnUse">
   <stop style="stop-color:rgb(25,124,241)" offset="0"/>
   <stop style="stop-color:rgb(32,188,250)" offset="1"/>
  </linearGradient>
 </defs>
</svg>

<?xml version="1.0" encoding="UTF-8" standalone="no"?>
<!DOCTYPE svg PUBLIC "-//W3C//DTD SVG 1.1//EN" "http://www.w3.org/Graphics/SVG/1.1/DTD/svg11.dtd">
<svg width="100%" height="100%" viewBox="0 0 48 48" version="1.1" xmlns="http://www.w3.org/2000/svg" xmlns:xlink="http://www.w3.org/1999/xlink" xml:space="preserve" xmlns:serif="http://www.serif.com/" style="fill-rule:evenodd;clip-rule:evenodd;">
    <rect id="rect15" x="1" y="6.645" width="46" height="34.71" style="fill:url(#_Linear1);"/>
    <g id="path25" transform="matrix(1,0,0,1,-0.520482,-1.99998)">
        <path d="M24,15.178C18.023,15.178 13.178,20.023 13.178,26C13.178,31.977 18.023,36.822 24,36.822C29.977,36.822 34.822,31.977 34.822,26C34.822,20.023 29.977,15.178 24,15.178ZM24,16.08C28.544,16.08 32.375,19.135 33.549,23.303C32.538,25.39 31.098,27.269 29.345,28.788C28.502,29.517 27.583,30.167 26.567,30.625C25.551,31.083 24.434,31.343 23.321,31.279C22.486,31.231 21.66,30.998 20.928,30.593C22.868,29.542 24.618,28.14 26.051,26.462C26.991,25.361 27.814,24.109 28.13,22.696C28.289,21.989 28.316,21.249 28.168,20.54C28.02,19.832 27.692,19.156 27.196,18.629C26.711,18.113 26.075,17.748 25.393,17.56C24.711,17.372 23.986,17.357 23.29,17.484C21.898,17.739 20.655,18.548 19.659,19.552C17.902,21.322 16.816,23.82 17.015,26.305C17.115,27.548 17.531,28.77 18.245,29.792C18.404,30.02 18.58,30.238 18.767,30.444C17.727,30.808 16.651,31.067 15.559,31.213C14.621,29.698 14.08,27.912 14.08,26C14.08,20.521 18.521,16.08 24,16.08L24,16.08ZM24.063,18.084C24.76,18.085 25.463,18.296 26.019,18.716C26.52,19.095 26.892,19.634 27.102,20.226C27.313,20.818 27.367,21.461 27.295,22.085C27.151,23.333 26.522,24.478 25.761,25.478C24.414,27.249 22.623,28.666 20.632,29.658C20.428,29.76 20.221,29.856 20.013,29.949C19.579,29.57 19.208,29.12 18.925,28.619C18.333,27.571 18.138,26.327 18.253,25.13C18.368,23.932 18.779,22.778 19.331,21.709C19.971,20.47 20.843,19.296 22.064,18.623C22.675,18.286 23.366,18.083 24.063,18.084ZM33.831,24.672C33.889,25.106 33.92,25.55 33.92,26C33.92,31.479 29.479,35.92 24,35.92C20.923,35.92 18.173,34.52 16.354,32.321C17.477,32.066 18.574,31.699 19.627,31.233C20.088,31.584 20.596,31.871 21.137,32.078C22.693,32.675 24.461,32.589 26.036,32.043C27.611,31.498 29.008,30.519 30.226,29.381C31.677,28.025 32.9,26.426 33.831,24.672L33.831,24.672Z" style="fill:white;fill-rule:nonzero;stroke:white;stroke-width:0.36px;"/>
    </g>
    <defs>
        <linearGradient id="_Linear1" x1="0" y1="0" x2="1" y2="0" gradientUnits="userSpaceOnUse" gradientTransform="matrix(0.384131,-42.435,42.435,0.384131,25.0455,42.3761)"><stop offset="0" style="stop-color:rgb(25,124,241);stop-opacity:1"/><stop offset="1" style="stop-color:rgb(32,188,250);stop-opacity:1"/></linearGradient>
    </defs>
</svg>
